X: 41004
T: Trip To Fowey
R: reel
M: 4/4
K: Dmajor
fgaf dAdf|edef dB~B2|fgaf dAdf|edef defg|
a2 af dAdf|edef dB~B2|fgaf dAdf|edef defg||
eAcA eAcA|fAdA fgab|afef d3 f|edef defg|
eA ~A2 e2 fe|dAda fgab|afdf ~d2 f|edef d4||

